X: 320
T:Crosses of Annagh, The
T:Unknown Reel 68B
M:C|
L:1/8
R:Reel
Z:Kevin Gow
K:Am
E~A3 GABd| e~a3 gedB|G2GB ABGE|DGBG ABG^F|!
E~A3 GABd| e~a3 gedB|G2B/2c/2d gedB|GABG A3z:||!
||:e~a3 bage|a2ba gedB|d2de g2gg|agab ged2|!
e~a3 bage|a2ba gedB|g2B/2c/2d gedB|GABG A3z:||
<end>
<start>
